resources/lib/oojs-ui/themes/mediawiki/images/icons/articleSearch-ltr.svg

<?xml version="1.0" encoding="utf-8"?>
<svg xmlns="http://www.w3.org/2000/svg" width="24" height="24" viewBox="0 0 24 24">
    <g>
        <path d="M19.1 18.5c.6-.7.9-1.5.9-2.5 0-2.2-1.8-4-4-4s-4 1.8-4 4 1.8 4 4 4c.7 0 1.3-.1 1.8-.4l2.7 2.7 1.1-1.1-2.5-2.7zm-3.1-.3c-1.2 0-2.2-1-2.2-2.3 0-1.2 1-2.2 2.2-2.2 1.2 0 2.3 1 2.3 2.2-.1 1.3-1.1 2.3-2.3 2.3zm-4.2-5.2c.3-.4.6-.7 1-1h-5.8v-1h9s1.2 0 2 .6v-8.6h-13v13c0 1.7 1.3 3 3 3h3.8c-.6-.8-1-1.9-1-3h-3.8v-1h3.9l.3-1h-4.2v-1h4.8zm.2-8h4v5h-4v-5zm-5 0h4v1h-4v-1zm0 2h4v1h-4v-1zm0 2h4v1h-4v-1z"/>
    </g>
</svg>

<?xml version="1.0" encoding="utf-8"?>
<svg xmlns="http://www.w3.org/2000/svg" width="24" height="24" viewBox="0 0 24 24">
    <path d="M19.1 18.5c.6-.7.9-1.5.9-2.5 0-2.2-1.8-4-4-4s-4 1.8-4 4 1.8 4 4 4c.7 0 1.3-.1 1.8-.4l2.7 2.7 1.1-1.1-2.5-2.7zm-3.1-.3c-1.2 0-2.2-1-2.2-2.3 0-1.2 1-2.2 2.2-2.2 1.2 0 2.3 1 2.3 2.2-.1 1.3-1.1 2.3-2.3 2.3zM11.8 13c.3-.4.6-.7 1-1H7v-1h9s1.2 0 2 .6V3H5v13c0 1.7 1.3 3 3 3h3.8c-.6-.8-1-1.9-1-3H7v-1h3.9l.3-1H7v-1h4.8zm.2-8h4v5h-4V5zM7 5h4v1H7V5zm0 2h4v1H7V7zm0 2h4v1H7V9z"/>
</svg>
